X:694
T:Happy Old Man, The
R:reel
C:Paddy O'Brien (Nenagh)
S:EB
Z:id:hn-reel-694
M:C|
K:G
ge|:dB~B2 AcBA|GEDE GABd|gbaf gedB|cedB A2ge|
dB~B2 AcBA|GEDE GABd|gbaf gedB|1 AcBA G2ge:|2 AcBA G2Bc||
|:dg~g2 agbg|agef gedB|dg~g2 agbg|agef g2ab|
agef ~g3e|d2BG AGEF|GABd gedB|1 AcBA G2Bc:|2 AcBA G2||
